X:29
T:Scottiche du Crassier
C:trad.
A:Massif Central
O:France
M:2/4
L:1/16
Q:1/4=85
K:G
D2|GFGA B2c2|d^cde d2g2|fedc B2AB|edcB A2D2|
GFGA B2c2|d^cde d2g2|fedc B2AB|cAGF G2Bc|
d2d^c dgfg|d2dc B2AB|c2cB AGAB|edcB A2Bc|
d2d^c dgfg|d2dc B2AB|cBAG FGAF|G2BA G2||
